_includes/icons/ios-iphone-x.svg

<svg fill="#666" height="50" viewBox="0 0 50 50" width="50" xmlns="http://www.w3.org/2000/svg"><path d="m15 2c-2.749516 0-5 2.2504839-5 5v36c0 2.749516 2.250484 5 5 5h20c2.749516 0 5-2.250484 5-5v-36c0-2.7495161-2.250484-5-5-5zm2.216797 2h15.566406c-.236576.4072494-.412804.8558418-.494141 1.3417969l-.302734 1.8222656a1.0001 1.0001 0 0 0 0 .0019531c-.081026.4881865-.490264.8339844-.986328.8339844h-12c-.496064 0-.904674-.3470272-.986328-.8359375l-.304688-1.8203125v-.0019531c-.081112-.4861575-.255803-.9347081-.492187-1.3417969zm-2.888672.0800781a1.0003436 1.0003436 0 0 0 .039063.0136719c.699235.2224238 1.242347.8160261 1.36914 1.578125l.304688 1.8222656c.240346 1.4390897 1.499048 2.5058594 2.958984 2.5058594h12c1.459336 0 2.719271-1.066941 2.958984-2.5058594v-.0019531l.302735-1.8203125c.13042-.7792162.697539-1.3806914 1.417969-1.5898438 1.334722.3054839 2.320312 1.4846668 2.320312 2.9179688v36c0 1.668484-1.331516 3-3 3h-20c-1.668484 0-3-1.331516-3-3v-36c0-1.4361416.989363-2.6173257 2.328125-2.9199219zm7.671875.9199219a1.0001 1.0001 0 1 0 0 2h3a1.0001 1.0001 0 1 0 0-2zm6 0a1 1 0 0 0 -1 1 1 1 0 0 0 1 1 1 1 0 0 0 1-1 1 1 0 0 0 -1-1z"/></svg>

<svg xmlns="http://www.w3.org/2000/svg" viewBox="0 0 50 50" width="50" height="50" fill="#666"><path style="line-height:normal;text-indent:0;text-align:start;text-decoration-line:none;text-decoration-style:solid;text-decoration-color:#000;text-transform:none;block-progression:tb;isolation:auto;mix-blend-mode:normal" d="M 15 2 C 12.250484 2 10 4.2504839 10 7 L 10 43 C 10 45.749516 12.250484 48 15 48 L 35 48 C 37.749516 48 40 45.749516 40 43 L 40 7 C 40 4.2504839 37.749516 2 35 2 L 15 2 z M 17.216797 4 L 32.783203 4 C 32.546627 4.4072494 32.370399 4.8558418 32.289062 5.3417969 L 31.986328 7.1640625 A 1.0001 1.0001 0 0 0 31.986328 7.1660156 C 31.905302 7.6542021 31.496064 8 31 8 L 19 8 C 18.503936 8 18.095326 7.6529728 18.013672 7.1640625 L 17.708984 5.34375 L 17.708984 5.3417969 C 17.627872 4.8556394 17.453181 4.4070888 17.216797 4 z M 14.328125 4.0800781 A 1.0003436 1.0003436 0 0 0 14.367188 4.09375 C 15.066423 4.3161738 15.609535 4.9097761 15.736328 5.671875 L 16.041016 7.4941406 C 16.281362 8.9332303 17.540064 10 19 10 L 31 10 C 32.459336 10 33.719271 8.933059 33.958984 7.4941406 L 33.958984 7.4921875 L 34.261719 5.671875 C 34.392139 4.8926588 34.959258 4.2911836 35.679688 4.0820312 C 37.01441 4.3875151 38 5.566698 38 7 L 38 43 C 38 44.668484 36.668484 46 35 46 L 15 46 C 13.331516 46 12 44.668484 12 43 L 12 7 C 12 5.5638584 12.989363 4.3826743 14.328125 4.0800781 z M 22 5 A 1.0001 1.0001 0 1 0 22 7 L 25 7 A 1.0001 1.0001 0 1 0 25 5 L 22 5 z M 28 5 A 1 1 0 0 0 27 6 A 1 1 0 0 0 28 7 A 1 1 0 0 0 29 6 A 1 1 0 0 0 28 5 z"/></svg>
